packages/bezier-icons/icons/ghost-filled.svg

<svg width="24" height="24" viewBox="0 0 24 24" fill="none" xmlns="http://www.w3.org/2000/svg">
<path fill-rule="evenodd" clip-rule="evenodd" d="M15.1192 11.468C14.2988 11.468 13.9558 10.886 13.9558 9.46003C13.9558 8.03503 14.2988 7.45203 15.1192 7.45203C15.9396 7.45203 16.2826 8.03503 16.2826 9.46003C16.2826 10.886 15.9396 11.468 15.1192 11.468ZM8.88083 11.468C8.06044 11.468 7.71844 10.886 7.71844 9.46003C7.71844 8.03503 8.06044 7.45203 8.88083 7.45203C9.70121 7.45203 10.0442 8.03503 10.0442 9.46003C10.0442 10.886 9.70121 11.468 8.88083 11.468ZM12.0005 2C7.87518 2 4.5 5.316 4.5 9.368V19.266C4.5 20.627 6.25477 21.215 7.1006 20.138V20.137C7.68179 19.398 8.8177 19.398 9.39889 20.137L10.1674 21.115C11.0946 22.295 12.9054 22.295 13.8326 21.115L14.6011 20.137C15.1823 19.398 16.3182 19.398 16.8994 20.137V20.138C17.7452 21.215 19.5 20.627 19.5 19.266V9.368C19.5 5.316 16.1248 2 12.0005 2Z" fill="#313234"/>
</svg>

<svg xmlns="http://www.w3.org/2000/svg" width="24" height="24" fill="none" viewBox="0 0 24 24"><path fill="#313234" fill-rule="evenodd" d="M15.12 11.468c-.821 0-1.164-.582-1.164-2.008 0-1.425.343-2.008 1.163-2.008s1.164.583 1.164 2.008-.343 2.008-1.164 2.008m-6.24 0c-.82 0-1.162-.582-1.162-2.008 0-1.425.342-2.008 1.163-2.008.82 0 1.163.583 1.163 2.008s-.343 2.008-1.163 2.008M12 2C7.876 2 4.5 5.316 4.5 9.368v9.898c0 1.361 1.755 1.949 2.6.872v-.001a1.468 1.468 0 0 1 2.299 0l.768.978c.928 1.18 2.738 1.18 3.666 0l.768-.978a1.468 1.468 0 0 1 2.298 0v.001c.846 1.077 2.601.489 2.601-.872V9.368C19.5 5.316 16.125 2 12 2" clip-rule="evenodd"/></svg>
